X: 15100
T: Ghoid Iad Mo Bhean Uam An Raoir
R: strathspey
M: 4/4
K: Aminor
|:e>d c>d cA A2|c>A G>A GE E2|e>d c>d cA A2|G>D E>G A2 A2:|
|:A<A A>G A<A A2|G>E D>E C>D E2|A<A A>G A<A A2|G>D E>G A2 A2:|

